Soft/dist/img/icons/marker.svg

<svg width="20" height="21" viewBox="0 0 20 21" fill="none" xmlns="http://www.w3.org/2000/svg">
<path d="M8.85677 1.29643C9.54379 0.817823 10.4562 0.817823 11.1432 1.29643L12.8548 2.48883C13.0918 2.65393 13.3618 2.76573 13.6461 2.81657L15.6995 3.18371C16.5237 3.33107 17.1689 3.97626 17.3163 4.80048L17.6834 6.85393C17.7343 7.13824 17.8461 7.40817 18.0112 7.64516L19.2036 9.35677C19.6822 10.0438 19.6822 10.9562 19.2036 11.6432L18.0112 13.3548C17.8461 13.5918 17.7343 13.8618 17.6834 14.1461L17.3163 16.1995C17.1689 17.0237 16.5237 17.6689 15.6995 17.8163L13.6461 18.1834C13.3618 18.2343 13.0918 18.3461 12.8548 18.5112L11.1432 19.7036C10.4562 20.1822 9.54378 20.1822 8.85677 19.7036L7.14516 18.5112C6.90817 18.3461 6.63824 18.2343 6.35393 18.1834L4.30048 17.8163C3.47626 17.6689 2.83107 17.0237 2.68371 16.1995L2.31657 14.1461C2.26573 13.8618 2.15392 13.5918 1.98883 13.3548L0.796434 11.6432C0.317823 10.9562 0.317823 10.0438 0.796434 9.35677L1.98883 7.64516C2.15393 7.40817 2.26573 7.13824 2.31657 6.85393L2.68371 4.80048C2.83107 3.97626 3.47626 3.33107 4.30048 3.18371L6.35393 2.81657C6.63824 2.76573 6.90817 2.65392 7.14516 2.48883L8.85677 1.29643Z" fill="url(#paint0_linear_77_2965)"/>
<path d="M14.1083 8.81554L9.50329 13.4203C9.16228 13.7613 8.60911 13.7613 8.26778 13.4203L5.89062 11.0429C5.54948 10.7019 5.54948 10.1486 5.89062 9.80748C6.23182 9.46628 6.78495 9.46628 7.126 9.80735L8.88572 11.5671L12.8728 7.58002C13.214 7.23882 13.7671 7.23908 14.1082 7.58002C14.4493 7.92116 14.4493 8.4742 14.1083 8.81554Z" fill="white"/>
<defs>
<linearGradient id="paint0_linear_77_2965" x1="0.8" y1="1.43333" x2="10" y2="20.5" gradientUnits="userSpaceOnUse">
<stop stop-color="#8BF9D5"/>
<stop offset="1" stop-color="#4EDAAC"/>
</linearGradient>
</defs>
</svg>

<svg width="20" height="21" fill="none" xmlns="http://www.w3.org/2000/svg"><path d="M8.857 1.296a2 2 0 012.286 0l1.712 1.193a2 2 0 00.791.328l2.053.367A2 2 0 0117.317 4.8l.367 2.054c.051.284.163.554.328.791l1.193 1.712a2 2 0 010 2.286l-1.193 1.712a2.001 2.001 0 00-.328.791l-.367 2.053a2 2 0 01-1.616 1.617l-2.054.367a2.005 2.005 0 00-.791.328l-1.712 1.193a2 2 0 01-2.286 0L7.145 18.51a2.001 2.001 0 00-.791-.328L4.3 17.816A2 2 0 012.684 16.2l-.367-2.054a2 2 0 00-.328-.791L.796 11.643a2 2 0 010-2.286L1.99 7.645a2 2 0 00.328-.791L2.684 4.8A2 2 0 014.3 3.184l2.054-.367a2 2 0 00.791-.328l1.712-1.193z" fill="url(#paint0_linear_77_2965)"/><path d="M14.108 8.816L9.503 13.42a.874.874 0 01-1.235 0L5.89 11.043a.874.874 0 011.235-1.236l1.76 1.76 3.987-3.987a.874.874 0 011.235 1.236z" fill="#fff"/><defs><linearGradient id="paint0_linear_77_2965" x1=".8" y1="1.433" x2="10" y2="20.5" gradientUnits="userSpaceOnUse"><stop stop-color="#8BF9D5"/><stop offset="1" stop-color="#4EDAAC"/></linearGradient></defs></svg>
